X:1
T:Fado do Zé Povinho
T:Fado do Zé Povinho
T:in "Cantos Populares . 12 Fados para Piano"
T:Editor: Eduardo da Fonseca - Porto [ca. 1900]
%%score { 1 | 2 }
L:1/8
Q:1/4=50
M:2/4
K:G
V:1 treble nm="Piano" snm="Pno."
V:2 bass 
V:1
"^Andante" [GB] | [GB]>[Bd] [Bd][Bd]/[Bd]/ | [Bd]>[Ac] [FA] z/ [Ac]/ | [Ac]>[ce] [ce][ce]/[ce]/ | %4
 [ce]>[Bd] [GB] z/ [GB]/ | [GB]>[Bd] [Bd][Bd]/[Bd]/ | [Bd]>[Ac] [FA] z/ [Ac]/ | %7
 [Ac]>[ce] [ce][ce]/[ce]/ | [ce]>[Bd] [GB] z/ [GB]/ | [E^G]>[GB] [Bd]/[ce]/4[Bd]/4[Ac]/[^GB]/ | %10
 [Bd]2 [Ac]=G | F/ED/ [Ac]>[FA] | [GB]2 z [GB] | [E^G]>[GB] [Bd]/[ce]/4[Bd]/4[Ac]/[^GB]/ | %14
 [Bd]2 [Ac]=G | F/ED/ [Ac]>[FA] | G[Bdg] [Bdg]!D.C.! |] %17
V:2
 z | G,/D/B,/D/ G,/D/B,/D/ | D,/A,/F,/A,/ D,/A,/F,/A,/ | D,/A,/F,/A,/ D,/A,/F,/A,/ | %4
 G,/D/B,/D/ G,/D/B,/D/ | G,/D/B,/D/ G,/D/B,/D/ | D,/A,/F,/A,/ D,/A,/F,/A,/ | %7
 D,/A,/F,/A,/ D,/A,/F,/A,/ | G,/D/B,/D/ G,/D/B,/D/ | E,/D/^G,/D/ E,/D/G,/D/ | A,/E/D/E/ A,/E/C/E/ | %11
 D,/A,/F,/A,/ D,/A,/F,/A,/ | G,/D/B,/D/ G,/D/B,/D/ | E,/D/^G,/D/ E,/D/G,/D/ | A,/E/D/E/ A,/E/C/E/ | %15
 D,/A,/F,/A,/ D,/A,/F,/A,/ | G,/D/B,/D/ G, |] %17

